public/assets/images/branding/ieeeut-logo.svg

<?xml version="1.0" encoding="utf-8"?>
<!-- Generator: Adobe Illustrator 17.0.0, SVG Export Plug-In . SVG Version: 6.00 Build 0)  -->
<!DOCTYPE svg PUBLIC "-//W3C//DTD SVG 1.1//EN" "http://www.w3.org/Graphics/SVG/1.1/DTD/svg11.dtd">
<svg version="1.1" id="Layer_1" xmlns="http://www.w3.org/2000/svg" xmlns:xlink="http://www.w3.org/1999/xlink" x="0px" y="0px"
	 width="446px" height="100px" viewBox="0 0 446 100" enable-background="new 0 0 446 100" xml:space="preserve">
<path fill="#E4E6EC" d="M300.994,4h4V0h-4V4z M303.472,60.286l-3.24,2.346l0.046,0.064l0.049,0.061L303.472,60.286z M320.11,60.286
	l3.091,2.539l0.022-0.027l0.021-0.026L320.11,60.286z M322.824,4V0h-4v4H322.824z M348.902,4h4V0h-4V4z M343.946,71.496l3.443,2.037
	l0.006-0.011l0.006-0.011L343.946,71.496z M292.262,84.122l-1.85,3.546l0.01,0.006l0.011,0.005L292.262,84.122z M274.916,4V0h-4v4
	H274.916z M296.994,4v47.082h8V4H296.994z M296.994,51.082c0,4.393,0.939,8.375,3.238,11.55l6.48-4.692
	c-1.005-1.388-1.718-3.542-1.718-6.858H296.994z M300.327,62.757c2.732,3.478,6.859,4.833,11.405,4.833v-8
	c-3.006,0-4.386-0.848-5.115-1.775L300.327,62.757z M311.732,67.59c4.557,0,8.67-1.358,11.469-4.765l-6.182-5.078
	c-0.82,0.998-2.292,1.843-5.287,1.843V67.59z M323.244,62.772c2.528-3.189,3.58-7.226,3.58-11.69h-8
	c0,3.245-0.758,5.344-1.848,6.718L323.244,62.772z M326.824,51.082V4h-8v47.082H326.824z M322.824,8h26.078V0h-26.078V8z M344.902,4
	v47.082h8V4H344.902z M344.902,51.082c0,7.387-1.533,13.464-4.411,18.399l6.91,4.03c3.73-6.393,5.501-13.925,5.501-22.429H344.902z
	 M340.503,69.459c-2.914,4.927-6.86,8.592-11.896,11.076l3.538,7.174c6.449-3.18,11.55-7.932,15.244-14.176L340.503,69.459z
	 M328.607,80.535c-5.136,2.533-10.933,3.835-17.465,3.835v8c7.628,0,14.654-1.53,21.003-4.661L328.607,80.535z M311.142,84.37
	c-6.535,0-12.186-1.303-17.051-3.805l-3.658,7.114c6.149,3.162,13.084,4.691,20.709,4.691V84.37z M294.112,80.576
	c-4.698-2.452-8.384-6.082-11.088-11.006l-7.012,3.852c3.432,6.247,8.242,11.034,14.4,14.246L294.112,80.576z M283.024,69.57
	c-2.67-4.861-4.108-10.966-4.108-18.488h-8c0,8.526,1.63,16.03,5.096,22.34L283.024,69.57z M278.916,51.082V4h-8v47.082H278.916z
	 M274.916,8h26.078V0h-26.078V8z M435.249,4h4V0h-4V4z M435.249,24.768v4h4v-4H435.249z M413.065,24.768v-4h-4v4H413.065z
	 M413.065,87.544v4h4v-4H413.065z M386.869,87.544h-4v4h4V87.544z M386.869,24.768h4v-4h-4V24.768z M364.921,24.768h-4v4h4V24.768z
	 M364.921,4V0h-4v4H364.921z M431.249,4v20.768h8V4H431.249z M435.249,20.768h-22.184v8h22.184V20.768z M409.065,24.768v62.776h8
	V24.768H409.065z M413.065,83.544h-26.196v8h26.196V83.544z M390.869,87.544V24.768h-8v62.776H390.869z M386.869,20.768h-21.948v8
	h21.948V20.768z M368.921,24.768V4h-8v20.768H368.921z M364.921,8h70.328V0h-70.328V8z"/>
<path fill="#E4E6EC" d="M28.416,0v90.624H0V0H28.416z M69.666,22.656v11.136h28.16v21.376h-28.16v12.8h32v22.656H41.25V0h60.416
	v22.656H69.666z M140.791,22.656v11.136h28.16v21.376h-28.16v12.8h32v22.656h-60.416V0h60.416v22.656H140.791z M211.916,22.656
	v11.136h28.16v21.376h-28.16v12.8h32v22.656H183.5V0h60.416v22.656H211.916z"/>
</svg>

<svg width="446" height="100" viewBox="0 0 446 100" fill="none" xmlns="http://www.w3.org/2000/svg">
<path d="M300.994 4H304.994V0H300.994V4ZM303.472 60.286L300.232 62.632L300.278 62.696L300.327 62.757L303.472 60.286ZM320.11 60.286L323.201 62.825L323.223 62.798L323.244 62.772L320.11 60.286ZM322.824 4V0H318.824V4H322.824ZM348.902 4H352.902V0H348.902V4ZM343.946 71.496L347.389 73.533L347.395 73.522L347.401 73.511L343.946 71.496ZM292.262 84.122L290.412 87.668L290.422 87.674L290.433 87.679L292.262 84.122ZM274.916 4V0H270.916V4H274.916ZM296.994 4V51.082H304.994V4H296.994ZM296.994 51.082C296.994 55.475 297.933 59.457 300.232 62.632L306.712 57.94C305.707 56.552 304.994 54.398 304.994 51.082H296.994ZM300.327 62.757C303.059 66.235 307.186 67.59 311.732 67.59V59.59C308.726 59.59 307.346 58.742 306.617 57.815L300.327 62.757ZM311.732 67.59C316.289 67.59 320.402 66.232 323.201 62.825L317.019 57.747C316.199 58.745 314.727 59.59 311.732 59.59V67.59ZM323.244 62.772C325.772 59.583 326.824 55.546 326.824 51.082H318.824C318.824 54.327 318.066 56.426 316.976 57.8L323.244 62.772ZM326.824 51.082V4H318.824V51.082H326.824ZM322.824 8H348.902V0H322.824V8ZM344.902 4V51.082H352.902V4H344.902ZM344.902 51.082C344.902 58.469 343.369 64.546 340.491 69.481L347.401 73.511C351.131 67.118 352.902 59.586 352.902 51.082H344.902ZM340.503 69.459C337.589 74.386 333.643 78.051 328.607 80.535L332.145 87.709C338.594 84.529 343.695 79.777 347.389 73.533L340.503 69.459ZM328.607 80.535C323.471 83.068 317.674 84.37 311.142 84.37V92.37C318.77 92.37 325.796 90.84 332.145 87.709L328.607 80.535ZM311.142 84.37C304.607 84.37 298.956 83.067 294.091 80.565L290.433 87.679C296.582 90.841 303.517 92.37 311.142 92.37V84.37ZM294.112 80.576C289.414 78.124 285.728 74.494 283.024 69.57L276.012 73.422C279.444 79.669 284.254 84.456 290.412 87.668L294.112 80.576ZM283.024 69.57C280.354 64.709 278.916 58.604 278.916 51.082H270.916C270.916 59.608 272.546 67.112 276.012 73.422L283.024 69.57ZM278.916 51.082V4H270.916V51.082H278.916ZM274.916 8H300.994V0H274.916V8ZM435.249 4H439.249V0H435.249V4ZM435.249 24.768V28.768H439.249V24.768H435.249ZM413.065 24.768V20.768H409.065V24.768H413.065ZM413.065 87.544V91.544H417.065V87.544H413.065ZM386.869 87.544H382.869V91.544H386.869V87.544ZM386.869 24.768H390.869V20.768H386.869V24.768ZM364.921 24.768H360.921V28.768H364.921V24.768ZM364.921 4V0H360.921V4H364.921ZM431.249 4V24.768H439.249V4H431.249ZM435.249 20.768H413.065V28.768H435.249V20.768ZM409.065 24.768V87.544H417.065V24.768H409.065ZM413.065 83.544H386.869V91.544H413.065V83.544ZM390.869 87.544V24.768H382.869V87.544H390.869ZM386.869 20.768H364.921V28.768H386.869V20.768ZM368.921 24.768V4H360.921V24.768H368.921ZM364.921 8H435.249V0H364.921V8Z" fill="#E4E6EC"/>
<path d="M28.416 0V90.624H0V0H28.416ZM69.666 22.656V33.792H97.826V55.168H69.666V67.968H101.666V90.624H41.25V0H101.666V22.656H69.666ZM140.791 22.656V33.792H168.951V55.168H140.791V67.968H172.791V90.624H112.375V0H172.791V22.656H140.791ZM211.916 22.656V33.792H240.076V55.168H211.916V67.968H243.916V90.624H183.5V0H243.916V22.656H211.916Z" fill="#E4E6EC"/>
</svg>
